X:45
T: Molihua
N: C1543
O: China, Heilongjiang, Qiqihaer
S: III, 57]
R: Xiaodiao, Gailiangdiao]
M: 2/4
L: 1/16
K: G
B3Be2e2 | z2d4B2 | A4A4 | G2A2G4
z2e2e3cd4 | z2e2e3cd4 | c4e4 | z2d2d2B2 | A4A2B2 | G2A2G4
z2e4c2 | d4d4 | z2c4e2 | d4g2B2 | A2B2A2G2 | E2D2E4
z2A2A2A2 | A2E2G4 | A2A2A2A2 | A2A2A2A2 | z2A4E2 | D8

